X:1
T:Title
%%score 1 2 3 4
L:1/8
M:4/2
K:C
V:1 treble nm="Part_1"
V:2 treble-8 nm="Part_2"
V:3 treble-8 nm="Part_3"
V:4 bass nm="Part_4"
V:1
 C8 D8 | D8 E4 F4- | F2 E2 E8 D4 | E16 || F8 (F8 | D8) (F8 | D8) C8 | D4 E8 D4 | E16 | z8 E8 | %10
 E8 E8 | (G8 A8) | (F8 G8) | E4 F4 D8 | C16 | z8 D8 | (D8 F8) | E8 F4 G4- | G2 F2 E8 D4 | E16 | %20
 z8 E8- | E8 G8 | A8 A4 c4- | c4 B2 A2 A4 G2 F2 | G8 F8 | G4 A6 G2 F2 E2 | D4 E8 D4 | E8 z8 | %28
 E8 (F8 | D8) C8 | D6 E2 F4 G4- | G2 F2 E8 D4 | E8 z8 | C8 D8 | D8 E4 (3:2:1F6- | %35
 (3:2:2F2 E4 E8 D4 | E16- | E16 | E16 |] %39
V:2
 G12 G4 | F4 A4 B4 d4 | c6 B2 A8 | A16 || c12 B2 A2 | B8 A4 c4- | c4 B4 c8 | B4 G4 A8 | %8
 z4 A8 G2 F2 | A6 B2 c8 | B4 e8 d2 c2 | B8 A4 c4 | d8 G4 c4- | c2 B2 A4 G8 | z4 G4 E6 F2 | G16 | %16
 z4 F6 G2 A2 B2 | c6 B2 c2 d2 e4- | e2 d2 c2 B2 A8 | A4 e8 d2 c2 | B8 A8 | z8 z4 G4 | c12 B2 A2 | %23
 A8 z8 | d8 d4 d4- | d4 (3:2:2e8 d4 c2 B2 | A4 c4 z4 A4 | B12 G4 | (G8 d8) | z8 z4 e4 | %30
 f6 e2 c4 e4- | e8 A4 B4 | (c8 d8) | z4 e4 (3:2:2f8 e4 | d8 z4 c4- | c2 B2 c4 A4 B4 | %36
 (3:2:2c8 d4 B8 | A4 c8 B2 A2 | B16 |] %39
V:3
 (c8 B8) | A8 G4 A4 | (E8 F8) | E16 || F8 (F8 | G8) F4 A4- | A4 G4 A8 | G4 E4 F8 | E8 z4 E4 | %9
 E8 E8 | (G8 A8) | G8 E4 F4 | D8 C8 | z4 c8 B4 | c8 z4 c4- | c4 B2 A2 B8 | z4 A8 G2 F2 | G8 A4 E4 | %18
 G4 A4 F8 | E8 z4 E4 | G4 G4 A4 c4- | c4 B2 A2 B8 | A8 z4 e4- | e4 d2 c2 c4 B2 A2 | B8 A8 | %25
 B4 c6 B2 A2 G2 | F4 E4 F8 | E16- | E8 z4 A4 | B4 G4 A8 | z4 A8 B4 | G4 A4 F8 | E4 A4 B4 G4 | %33
 A8 z4 A4 | B4 (G8 (3:2:1A6-) | (3:2:2A2 G4 E4 F8 | E16- | E16 | E16 |] %39
V:4
 (C,8 G,,8) | D,6 F,2 E,4 D,4 | E,4 C,4 D,8 | A,,16 || z16 | z16 | z16 | z16 | A,,16 | A,,8 A,,8 | %10
 E,6 D,2 C,4 A,,4 | E,8 A,,8 | z4 D,4 E,4 C,4- | C,4 F,,4 G,,8 | C,16 | z8 G,,8 | D,16 | %17
 C,8 F,,4 C,4- | (C,4 D,12) | A,,8 z4 A,,4 | E,4 E,4 A,,8 | E,16 | A,,16- | A,,16 | G,,8 D,6 C,2 | %25
 B,,4 A,,12 | D,4 C,4 D,8 | z4 G,6 F,2 E,2 D,2 | C,4 E,4 D,6 C,2 | B,,8 A,,8 | D,4 F,8 E,4- | %31
 E,4 C,4 D,8 | A,,4 C,4 B,,8 | A,,8 D,8 | G,,8 C,4 F,,4 | (C,8 D,8) | C,4 A,,8 G,,4 | A,,16 | %38
 E,,16 |] %39

